images/icon-digitaaloporde.svg

<svg height="40" viewBox="0 0 76 40" width="76" xmlns="http://www.w3.org/2000/svg"><g fill="none" fill-rule="evenodd" transform="translate(15 5)"><path d="m6.3 3v22h13.1v1c.0193544.3886234.2007139.7513424.5 1 .2485795.1250496.5218183.1933593.8.2h6.2c.2781817-.0066407.5514205-.0749504.8-.2.3172852-.2339495.5032115-.6058021.5-1v-1h13.1v-22zm21.2 23c-.0369986.4095039-.3892087.7176877-.8.7h-6.2c-.4107913.0176877-.7630014-.2904961-.8-.7v-1h7.7v1zm11.9-2.3h-31.5v-19.4h31.5z"/><g fill="#fff"><path d="m19.9 26c.0369986.4095039.3892087.7176877.8.7h6.2c.4107913.0176877.7630014-.2904961.8-.7v-1h-7.7v1z"/><path d="m45.2 25h-2.1v-22c.0291104-.55671931-.1864605-1.09837064-.5901528-1.48283952-.4036924-.38446887-.955209-.57337715-1.5098472-.51716048h-34.8c-.54753721-.02741158-1.08232288.17113771-1.47931191.5492225-.39698903.37808478-.62137382.90255499-.62068809 1.4507775v22h-2.1c-.27030296-.0178819-.53517976.0817185-.72673061.2732694-.19155084.1915508-.29115133.4564276-.27326939.7267306-.00045195.8132826.32930858 1.5918994.91373525 2.1574736.58442668.5655742 1.37343402.8696359 2.18626475.8425264h38.9c1.6737786.0008711 3.0460074-1.3270922 3.1-3 .0431077-.2583193-.0338406-.5222045-.2090368-.7168669-.1751961-.1946624-.429546-.2988863-.6909632-.2831331zm-17.1 0v1c.0032115.3941979-.1827148.7660505-.5 1-.2485795.1250496-.5218183.1933593-.8.2h-6.1c-.2781817-.0066407-.5514205-.0749504-.8-.2-.3172852-.2339495-.5032115-.6058021-.5-1v-1h-13.1v-22h34.8v22z"/><path d="m7.9 4.3v19.4h31.5v-19.4zm15.6 15.7-6.3-5.9 1.6-1.2 3.6 2.7c2.7433651-2.9530745 5.9114932-5.4808364 9.4-7.5l.4.8c-3.6259764 3.0686071-6.5865542 6.8458959-8.7 11.1z"/></g></g></svg>

<?xml version="1.0" encoding="UTF-8" standalone="no"?>
<svg width="76px" height="40px" viewBox="0 0 76 40" version="1.1" xmlns="http://www.w3.org/2000/svg" xmlns:xlink="http://www.w3.org/1999/xlink">
    <!-- Generator: Sketch 3.6.1 (26313) - http://www.bohemiancoding.com/sketch -->
    <title>icon-digitaaloporde</title>
    <desc>Created with Sketch.</desc>
    <defs></defs>
    <g id="Page-1" stroke="none" stroke-width="1" fill="none" fill-rule="evenodd">
        <g id="icon-digitaaloporde">
            <g transform="translate(15.000000, 5.000000)" id="Shape">
                <path d="M6.3,3 L6.3,25 L19.4,25 L19.4,26 C19.4193544,26.3886234 19.6007139,26.7513424 19.9,27 C20.1485795,27.1250496 20.4218183,27.1933593 20.7,27.2 L26.9,27.2 C27.1781817,27.1933593 27.4514205,27.1250496 27.7,27 C28.0172852,26.7660505 28.2032115,26.3941979 28.2,26 L28.2,25 L41.3,25 L41.3,3 L6.3,3 L6.3,3 Z M27.5,26 C27.4630014,26.4095039 27.1107913,26.7176877 26.7,26.7 L20.5,26.7 C20.0892087,26.7176877 19.7369986,26.4095039 19.7,26 L19.7,25 L27.4,25 L27.4,26 L27.5,26 L27.5,26 Z M39.4,23.7 L7.9,23.7 L7.9,4.3 L39.4,4.3 L39.4,23.7 L39.4,23.7 Z"></path>
                <path d="M19.9,26 C19.9369986,26.4095039 20.2892087,26.7176877 20.7,26.7 L26.9,26.7 C27.3107913,26.7176877 27.6630014,26.4095039 27.7,26 L27.7,25 L20,25 L20,26 L19.9,26 L19.9,26 Z" fill="#FFFFFF"></path>
                <path d="M45.2,25 L43.1,25 L43.1,3 C43.1291104,2.44328069 42.9135395,1.90162936 42.5098472,1.51716048 C42.1061548,1.13269161 41.5546382,0.943783328 41,1 L6.2,1 C5.65246279,0.972588424 5.11767712,1.17113771 4.72068809,1.5492225 C4.32369906,1.92730728 4.09931427,2.45177749 4.1,3 L4.1,25 L2,25 C1.72969704,24.9821181 1.46482024,25.0817185 1.27326939,25.2732694 C1.08171855,25.4648202 0.98211806,25.729697 1,26 C0.999548047,26.8132826 1.32930858,27.5918994 1.91373525,28.1574736 C2.49816193,28.7230478 3.28716927,29.0271095 4.1,29 L43,29 C44.6737786,29.0008711 46.0460074,27.6729078 46.1,26 C46.1431077,25.7416807 46.0661594,25.4777955 45.8909632,25.2831331 C45.7157671,25.0884707 45.4614172,24.9842468 45.2,25 L45.2,25 Z M28.1,25 L28.1,26 C28.1032115,26.3941979 27.9172852,26.7660505 27.6,27 C27.3514205,27.1250496 27.0781817,27.1933593 26.8,27.2 L20.7,27.2 C20.4218183,27.1933593 20.1485795,27.1250496 19.9,27 C19.5827148,26.7660505 19.3967885,26.3941979 19.4,26 L19.4,25 L6.3,25 L6.3,3 L41.1,3 L41.1,25 L28.1,25 L28.1,25 Z" fill="#FFFFFF"></path>
                <path d="M7.9,4.3 L7.9,23.7 L39.4,23.7 L39.4,4.3 L7.9,4.3 L7.9,4.3 Z M23.5,20 L17.2,14.1 L18.8,12.9 L22.4,15.6 C25.1433651,12.6469255 28.3114932,10.1191636 31.8,8.1 L32.2,8.9 C28.5740236,11.9686071 25.6134458,15.7458959 23.5,20 L23.5,20 Z" fill="#FFFFFF"></path>
            </g>
            <g id="Group"></g>
        </g>
    </g>
</svg>
